X:1
T:Prelude
T:Prelude
T:Op. 28 No. 3
T:Frédéric Chopin
C:Frédéric Chopin
%%score { ( 1 3 ) | 2 }
L:1/8
Q:1/4=160
M:4/4
K:G
V:1 treble nm="鋼琴" snm="Pno."
V:3 treble 
V:2 bass 
V:1
"^Vivace""_leggiermente" z8 | z8 | !>!D3 z !>![GB]3 z/ ([ce]/ | [Bd]6)!<(! z z/ ([ec']/!<)! | %4
!mf!"^͡""^͜"!>(! [db]8!>)! |!p! [Bg]4) z4 | (f15/2 e/ | a4) z4 | (f15/2 e/ | a4) z4 | %10
 z2 z z/ ([ac']/ [ce]3) z/ ([cd]/ | D3) z !>![GB]3 z/ ([ce]/ | [Bd]6)!<(! z z/ ([ec']/!<)! | %13
!mf!"^͡""^͜"!>(! !>![db]8!>)! |!p! [Bg]4) z4 | (=f4 f7/2 f/ | =f7/2{fg} f/ e7/2 ^d/ | %17
 !arpeggio![EGce]8- | [EGce]8) |"_poco meno." (c4 c7/2 c/ | c15/2 B/ | [EGB]8 | A15/2 B/ | %23
 !arpeggio![DG]8 | F15/2 G/ | !arpeggio![DG]8) | z8 | %27
!p!"^leggiero" (B,/D/G/A/ B/A/G/e/ d/c/B/A/ G/A/B/D/) | (B,/D/G/A/ B/A/G/e/ d/c/B/A/ G/A/B/D/) | %29
 (B,/D/G/A/ G/A/B/D/) (B,/D/G/A/ G/A/B/D/) | %30
 (B,/D/G/A/"_dim." G/A/B/d/ g/a/b/d'/!8va(! g'/a'/b'/d''/ | %31
 b'2)!8va)! z2[Q:1/4=80] !arpeggio![B,DGB]4 |!pp![Q:1/4=40] !arpeggio!!fermata![B,DGB]8 |] %33
V:2
!p! (G,,/D,/G,/A,/ B,/A,/G,/E/ D/C/B,/A,/ G,/A,/B,/D,/) | %1
 (G,,/D,/G,/A,/ B,/A,/G,/E/ D/C/B,/A,/ G,/A,/B,/D,/) | %2
 (G,,/D,/G,/A,/ B,/A,/G,/E/ D/C/B,/A,/ G,/A,/B,/D,/) | %3
 (G,,/D,/G,/A,/ B,/A,/G,/E/ D/C/B,/A,/ G,/A,/B,/D,/) | %4
 (G,,/D,/G,/A,/ B,/A,/G,/E/ D/C/B,/A,/ G,/A,/B,/D,/) | %5
 (G,,/D,/G,/A,/ B,/A,/G,/E/ D/C/B,/A,/ G,/A,/B,/D,/) | %6
 (A,,/E,/A,/B,/ ^C/B,/A,/F/ E/D/C/B,/ A,/B,/C/E,/) | %7
 (D,,/A,,/D,/E,/ F,/E,/D,/B,/ A,/G,/F,/E,/ D,/E,/F,/A,,/) | %8
 (A,,/E,/A,/B,/ ^C/B,/A,/F/ E/D/C/B,/ A,/B,/C/E,/) | %9
 (D,,/A,,/D,/E,/ F,/E,/D,/B,/ A,/G,/F,/E,/ D,/E,/F,/A,,/) | %10
 (D,,/A,,/D,/E,/ F,/E,/D,/B,/ A,/G,/F,/E,/ D,/E,/F,/A,,/) | %11
 (G,,/D,/G,/A,/ B,/A,/G,/E/ D/C/B,/A,/ G,/A,/B,/D,/) | %12
 (G,,/D,/G,/A,/ B,/A,/G,/E/ D/C/B,/A,/ G,/A,/B,/D,/) | %13
 (G,,/D,/G,/A,/ B,/A,/G,/E/ D/C/B,/A,/ G,/A,/B,/D,/) | %14
 (G,,/D,/G,/A,/ B,/A,/G,/E/ D/C/B,/A,/ G,/A,/B,/D,/) | %15
 (G,,/D,/G,/A,/ B,/A,/G,/E/ D/C/B,/A,/ G,/A,/B,/D,/) | %16
 (G,,/D,/G,/A,/ B,/A,/G,/E/ D/C/B,/A,/ G,/A,/B,/G,,/) | %17
 (C,,/G,,/C,/D,/ E,/D,/C,/A,/ G,/=F,/E,/D,/ C,/D,/E,/G,,/) | %18
 (C,,/G,,/C,/D,/ E,/D,/C,/A,/ G,/=F,/E,/D,/ C,/D,/E,/G,,/) | %19
 (C,,/G,,/C,/D,/ E,/D,/C,/A,/ G,/=F,/E,/D,/ C,/D,/E,/G,,/) | %20
 (C,,/G,,/C,/D,/ E,/D,/C,/A,/ G,/=F,/E,/D,/ C,/D,/E,/G,,/) | %21
 (C,,/G,,/C,/D,/ E,/D,/C,/A,/ G,/^F,/E,/D,/ C,/D,/E,/G,,/) | %22
 (C,,/G,,/C,/D,/ E,/D,/C,/A,/ G,/F,/E,/D,/ C,/D,/E,/G,,/) | %23
 (C,,/G,,/C,/D,/ E,/D,/C,/A,/ G,/F,/E,/D,/ C,/D,/E,/G,,/) | %24
 (D,,/A,,/D,/E,/ F,/E,/D,/B,/ A,/G,/F,/E,/ D,/E,/F,/A,,/) | %25
 (G,,/D,/G,/A,/ B,/A,/G,/E/ D/C/B,/A,/ G,/A,/B,/D,/) | %26
 (G,,/D,/G,/A,/ B,/A,/G,/E/ D/C/B,/A,/ G,/A,/B,/D,/) | %27
 (G,,/D,/G,/A,/ B,/A,/G,/E/ D/C/B,/A,/ G,/A,/B,/D,/) | %28
 (G,,/D,/G,/A,/ B,/A,/G,/E/ D/C/B,/A,/ G,/A,/B,/D,/) | %29
 (G,,/D,/G,/A,/ G,/A,/B,/D,/) (G,,/D,/G,/A,/ G,/A,/B,/D,/) | %30
 (G,,/D,/G,/A,/ G,/A,/B,/D/[K:treble] G/A/B/d/ g/a/b/d'/ | b2) z2[K:bass] !arpeggio![G,,D,G,]4 | %32
 !arpeggio!!fermata![G,,D,G,]8 |] %33
V:3
 x8 | x8 | x8 | x8 | x8 | x8 | [GA^c]8 | !arpeggio![Fd]2 z2 x4 | [GA^c]8 | !arpeggio![F=c]2 z2 x4 | %10
 x8 | x8 | x8 | x8 | x8 | B8 | B8 | x8 | x8 | [EG]8 | [EG]8 | x8 | [EG]8 | A,2 z2 z4 | [CD]8 | %25
 B,2 z2 z4 | x8 | x8 | x8 | x8 | x6!8va(! x2 | x2!8va)! x6 | x8 |] %33

